X:1
T:[ID 5-30]
T:[ID 5-30]
T:Bezeichnung standardisiert: Clapper Sesken oder Wasch Tantz; Clapper Sesken oder Wasch Tantz Clapper 6ken oder Wasch Tantz] In dieser Quelle auch als: Clapper oder Wasch 6ken
T:Urheber unbekannt Erstbeleg: 1773 (Datum in der schriftlichen Quelle) Datum in der hier transkribierten schriftlichen Quelle: 1792
C:Urheber unbekannt
C:Erstbeleg: 1773 (Datum in der schriftlichen Quelle)
C:Datum in der hier transkribierten schriftlichen Quelle: 1792
L:1/8
M:2/4
K:G
V:1 treble 
V:1
 Ggfe | d2 B2 | cedc | BA/B/ G2 | Ggfe | d2 c2 | Bd dc/B/ | A4 :: dB GA/B/ | c3 A | dB GA/B/ | %11
 c3 A | dB G/A/B/c/ | dB G2 | eg f/g/a/f/ | g4 :: B/c/d dd | A/B/c cc | B/c/d dd | A/B/c cc | %20
 G/A/B/c/ de/f/ | gf/e/ dc | BA/G/ A/c/A/F/ | G2 G,2 :| %24

